sources/design/Outline/H.svg

<svg:svg xmlns:cc="http://creativecommons.org/ns#" xmlns:dc="http://purl.org/dc/elements/1.1/" xmlns:inkscape="http://www.inkscape.org/namespaces/inkscape" xmlns:rdf="http://www.w3.org/1999/02/22-rdf-syntax-ns#" xmlns:sodipodi="http://sodipodi.sourceforge.net/DTD/sodipodi-0.dtd" xmlns:svg="http://www.w3.org/2000/svg" xml:space="preserve" width="1000" height="1000" version="1.1" style="clip-rule:evenodd;fill-rule:evenodd;image-rendering:optimizeQuality;shape-rendering:geometricPrecision;text-rendering:geometricPrecision" viewBox="0 0 1000 1000" id="svg10" sodipodi:docname="H.svg" inkscape:version="1.1.1 (3bf5ae0d25, 2021-09-20)"><svg:metadata id="metadata14"><rdf:RDF><cc:Work rdf:about=""><dc:format>image/svg+xml</dc:format><dc:type rdf:resource="http://purl.org/dc/dcmitype/StillImage" /><dc:title /></cc:Work></rdf:RDF></svg:metadata><sodipodi:namedview pagecolor="#ffffff" bordercolor="#666666" borderopacity="1" objecttolerance="10" gridtolerance="10" guidetolerance="10" inkscape:pageopacity="0" inkscape:pageshadow="2" inkscape:window-width="1920" inkscape:window-height="1009" id="namedview12" showgrid="false" inkscape:zoom="1.6978177" inkscape:cx="155.19923" inkscape:cy="549.23447" inkscape:window-x="0" inkscape:window-y="0" inkscape:window-maximized="1" inkscape:current-layer="svg10" showguides="true" inkscape:guide-bbox="true" inkscape:document-rotation="0" inkscape:pagecheckerboard="0"><sodipodi:guide position="0,1000" orientation="0,1" id="guide16" inkscape:label="" inkscape:locked="true" inkscape:color="rgb(0,0,255)" /><sodipodi:guide position="1763.3122,2036.1693" orientation="1000,0" id="guide18" /><sodipodi:guide position="0,200" orientation="0,1" id="guide20" inkscape:label="base" inkscape:locked="true" inkscape:color="rgb(0,0,255)" /><inkscape:grid type="xygrid" id="grid24" originx="-473.37552" originy="-489.69235" /><sodipodi:guide position="0,0" orientation="0,1" id="guide34" inkscape:label="bottom" inkscape:locked="true" inkscape:color="rgb(0,0,255)" /><sodipodi:guide position="225.05109,1693.3186" orientation="0,1" id="guide44" inkscape:label="" inkscape:locked="false" inkscape:color="rgb(0,0,255)" /><sodipodi:guide position="0,900" orientation="0,1" id="guide46" inkscape:label="" inkscape:locked="true" inkscape:color="rgb(0,0,255)" /><sodipodi:guide position="433.17326,577.74839" orientation="-1,0" id="guide841" inkscape:label="width" inkscape:locked="false" inkscape:color="rgb(0,0,255)" /></sodipodi:namedview>
 <svg:defs id="defs4"><inkscape:path-effect effect="fillet_chamfer" id="path-effect850" is_visible="true" lpeversion="1" satellites_param="F,0,0,1,0,0,0,1 @ F,0,0,1,0,13.114797,0,1 @ F,0,0,1,0,15.793356,0,1 @ F,0,0,1,0,0,0,1 @ F,0,0,1,0,0,0,1 @ F,0,0,1,0,11.89804,0,1 @ F,0,0,1,0,21.049515,0,1 @ F,0,0,1,0,0,0,1 @ F,0,0,1,0,0,0,1 | F,0,0,1,0,10.514111,0,1 @ F,0,0,1,0,0,0,1 @ F,0,0,1,0,16.152239,0,1 @ F,0,0,1,0,10.734205,0,1 @ F,0,0,1,0,0,0,1 @ F,0,0,1,0,13.248503,0,1 | F,0,0,1,0,0,0,1 @ F,0,0,1,0,32.609472,0,1 @ F,0,0,1,0,17.929758,0,1 @ F,0,0,1,0,0,0,1 @ F,0,0,1,0,0,0,1 @ F,0,0,1,0,17.01762,0,1 @ F,0,0,1,0,17.997886,0,1 @ F,0,0,1,0,0,0,1" unit="px" method="auto" mode="F" radius="0" chamfer_steps="1" flexible="false" use_knot_distance="true" apply_no_radius="true" apply_with_radius="true" only_selected="true" hide_knots="false" /><inkscape:path-effect effect="fillet_chamfer" id="path-effect848" is_visible="true" lpeversion="1" satellites_param="F,0,0,1,0,19.317652,0,1 @ F,0,0,1,0,0,0,1 @ F,0,0,1,0,0,0,1 @ F,0,0,1,0,0,0,1 @ F,0,0,1,0,0,0,1 @ F,0,0,1,0,15.498803,0,1 @ F,0,0,1,0,19.429687,0,1 @ F,0,0,1,0,0,0,1 @ F,0,0,1,0,0,0,1 @ F,0,0,1,0,27.20276,0,1 @ F,0,0,1,0,25.720232,0,1 @ F,0,0,1,0,0,0,1 @ F,0,0,1,0,0,0,1 @ F,0,0,1,0,0,0,1 @ F,0,0,1,0,0,0,1 @ F,0,0,1,0,30.293729,0,1 @ F,0,0,1,0,25.19974,0,1 @ F,0,0,1,0,0,0,1 @ F,0,0,1,0,0,0,1 @ F,0,0,1,0,16.098932,0,1" unit="px" method="auto" mode="F" radius="0" chamfer_steps="1" flexible="false" use_knot_distance="true" apply_no_radius="true" apply_with_radius="true" only_selected="true" hide_knots="false" /><inkscape:path-effect effect="spiro" id="path-effect849" is_visible="true" lpeversion="1" /><inkscape:path-effect effect="spiro" id="path-effect851" is_visible="true" lpeversion="1" />
  <svg:style type="text/css" id="style2">
   
    .fil0 {fill:#EF7F1A;fill-rule:nonzero}
   
  </svg:style>
 <inkscape:path-effect effect="spiro" id="path-effect1214" is_visible="true" lpeversion="1" /><inkscape:path-effect effect="spiro" id="path-effect1195" is_visible="true" lpeversion="1" /><inkscape:path-effect effect="spiro" id="path-effect992" is_visible="true" lpeversion="1" /><inkscape:path-effect effect="spiro" id="path-effect1060" is_visible="true" lpeversion="1" /><inkscape:path-effect effect="spiro" id="path-effect1047" is_visible="true" lpeversion="1" /><inkscape:path-effect effect="spiro" id="path-effect1085" is_visible="true" lpeversion="1" /><inkscape:path-effect effect="spiro" id="path-effect1286" is_visible="true" lpeversion="1" /></svg:defs>
 
<svg:g id="path847"><svg:path style="color:#000000;clip-rule:nonzero;fill:#1a5fb4;fill-rule:nonzero;stroke-linecap:round;stroke-linejoin:round;-inkscape-stroke:none;paint-order:fill stroke markers;shape-rendering:auto" d="M 294.74805,-29.269531 C 285.79605,-28.586202 276.64946,-25.035019000000002 269.80469,-18.527344 C 260.67832,-9.8504428 256.59764,3.1676564999999997 257.63867,14.623047 C 261.05584999999996,52.225354 264.33395,89.840222 267.47266,127.4668 C 272.84471,191.86653 277.637,256.03941 280.2832,320.01171999999997 C 261.74483000000004,323.20475999999996 243.12368000000004,325.91119 224.42969000000002,327.98436999999996 C 202.95252000000002,330.36621999999994 181.38522000000003,331.91076999999996 159.79102,332.80468999999994 C 159.1917,274.10558999999995 160.78825,215.60212999999993 165.75195,157.41405999999995 C 168.97602,119.61924999999995 173.57954999999998,81.93959299999995 179.55273,44.48046899999994 C 183.63872,18.85636599999994 165.54748,-6.382501200000057 139.70898,-10.417969000000056 L 33.443359,-27.015625 C 21.182003,-28.930609 6.4285728,-25.468903 -3.5195313,-15.509766 C -13.467635,-5.550628 -16.897999,9.111966 -15.033203,21.337891 C -6.1222052,79.759936 0.70292153,138.49982 5.4277344,197.4082 C 8.8972549,240.66575999999998 11.160009,284.02693999999997 12.46875,327.44336 C 12.39662,327.43536 12.324085,327.43026 12.251953,327.42186 C -9.444825900000001,324.90019 -31.799356000000003,344.45766 -31.929687,366.47850999999997 L -32.636719,485.76365999999996 C -32.706618999999996,497.57413999999994 -27.304485,512.36775 -14.791015999999999,520.5371 C -6.509594199999999,525.94358 3.0000541,527.3028 11.615234000000001,526.30663 C 9.662977300000001,580.26932 6.513250700000001,634.2293400000001 2.1074219000000003,688.11132 C 0.00638118000000043,713.80642 -2.3496417999999997,739.48237 -4.958984399999999,765.13085 C -7.593827899999999,791.02999 12.002219,815.0741 37.996094,817.58397 L 129.04102,826.37499 C 145.90392,828.0032100000001 163.35872,822.28279 175.17969,810.3261600000001 C 187.00065999999998,798.36953 192.51482,780.88939 190.73242,764.0644400000001 C 186.60602,725.1133600000001 182.69531999999998,686.1410000000001 179.00195,647.1464700000001 C 173.73304,591.5173100000002 169.03468999999998,535.9088800000002 165.52344,480.39452000000017 C 188.88782,476.03517000000016 212.45488999999998,472.77741000000015 236.13672,470.91796000000016 C 251.3006,469.7273200000002 266.50821,469.0571400000002 281.72266,468.8984300000002 C 280.07444000000004,534.1661100000002 275.7878,599.6435700000002 270.58984000000004,665.2753800000002 C 267.92232,698.9568100000001 265.02165,732.6203800000002 261.88867000000005,766.2617100000001 C 259.31219000000004,793.9274800000001 280.60122000000007,819.3572300000001 308.34766,821.5956900000001 L 399.45898,828.9453000000001 C 410.61726,829.8455000000001 423.22473,825.7277000000001 431.59569999999997,816.8535100000001 C 439.96666999999997,807.9793100000002 443.33052999999995,795.2159400000002 441.82030999999995,784.1562400000001 C 436.09149999999994,742.2026900000002 431.39032,700.1075000000002 427.72265999999996,657.9238200000001 C 422.61494,599.1773900000001 419.68818999999996,540.2506000000001 418.58984,481.2871000000001 C 428.8028,482.85941000000014 440.44894,480.4127100000001 449.12694999999997,473.33007000000015 C 458.2025,465.92299000000014 463.17382999999995,454.1148200000001 463.17382999999995,443.2792900000002 L 463.17382999999995,325.29297 C 463.17382999999995,313.96344000000005 457.86940999999996,300.62004 447.01561999999996,292.8125 C 439.57917999999995,287.46318 430.61711999999994,285.4698 422.26171999999997,285.82422 C 425.09346,235.38544000000002 429.20676,185.01892000000004 434.94530999999995,134.82812 C 438.63980999999995,102.51518000000002 442.93296999999995,70.27108900000002 447.82226999999995,38.117187000000015 C 451.55461999999994,13.571813000000017 433.86938999999995,-10.408375999999983 409.1855499999999,-13.929687999999985 L 303.54297,-29.0 C 300.69467000000003,-29.406329 297.73204000000004,-29.497308 294.74805000000003,-29.269531 L 294.74805,-29.269531 M 319.54492,33.890625 L 386.45898,43.435547 C 382.3353,71.571981 378.56428999999997,99.758718 375.33398,128.01172 C 368.70941,185.95183 364.1724,244.11973 361.33594,302.36914 C 354.16712,304.2661 346.97937,306.0932 339.76758,307.82031 C 336.9866,245.71647 332.3904,183.9139 327.26562,122.47852 C 324.8016,92.940017 322.17991,63.414364 319.54492,33.890625 M 47.669921999999985,35.935547 L 118.50585999999998,46.998047 C 113.199,81.957616 108.97424,117.07999 105.96875,152.3125 C 100.814,212.74016 99.16271,273.13154 99.769531,333.38867 C 90.70476,333.18599 81.644724,332.85493 72.589844,332.39062 C 71.295791,285.7742 68.970188,239.16463 65.236328,192.61133 C 61.033973,140.21688 55.107515,87.969068 47.669922,35.935547 L 47.669921999999985,35.935547 M 359.03125,364.88672 C 358.63201,380.6519 358.32179,396.41565 358.20117,412.18555000000003 C 352.94083,411.68701000000004 347.67212,411.30309000000005 342.40234,410.91797 C 342.39934,408.33862000000005 342.43814,405.76386 342.42573999999996,403.18359000000004 C 342.37103999999994,391.73245000000003 342.21306999999996,380.29195000000004 341.97651999999994,368.86328000000003 C 347.6694099999999,367.57221000000004 353.36172999999997,366.27713000000006 359.03120999999993,364.88672 L 359.03125,364.88672 M 282.12694999999997,380.60547 C 282.24834,388.22839000000005 282.39135999999996,395.85202000000004 282.42772999999994,403.46875 C 282.43672999999995,405.28078 282.40642999999994,407.09581000000003 282.4101299999999,408.9082 C 265.40316999999993,409.05579 248.40016999999992,409.76984000000004 231.43941999999993,411.10156 C 208.24911999999992,412.92242 185.17930999999993,415.98807 162.27926999999994,420.00586 C 161.87583999999995,410.93244 161.46872999999994,401.85884999999996 161.15426999999994,392.79296999999997 C 184.49932999999993,391.8524 207.81713999999994,390.19491 231.04293999999993,387.61913999999996 C 248.12962999999993,385.72420999999997 265.1630599999999,383.37952999999993 282.1269199999999,380.60546999999997 L 282.12694999999997,380.60547 M 73.650391,392.49609 C 82.804009,392.92768 91.961206,393.23575999999997 101.12305,393.41602 C 101.57393,406.62332 102.17794,419.81251 102.81055,433.00195 C 93.042968,435.56241 83.334136,438.32343000000003 73.679687,441.2832 C 73.827448,425.02411 73.764237,408.75997 73.650387,392.49609000000004 L 73.650391,392.49609 M 341.68164,471.02148 C 347.25195,471.45882 352.81352000000004,471.96774 358.37109000000004,472.54296999999997 C 359.32109,536.1539 362.43611000000004,599.73442 367.94727000000006,663.12109 C 370.96799000000004,697.86396 374.86203000000006,732.52442 379.25000000000006,767.12109 L 322.4316400000001,762.53711 C 325.26319000000007,731.7112999999999 327.95835000000005,700.87263 330.4023400000001,670.01367 C 335.6269600000001,604.0452700000001 339.9847600000001,537.69533 341.6816400000001,471.02148000000005 L 341.68164,471.02148 M 106.28711000000001,494.17578 C 109.79572000000002,547.25179 114.28406000000001,600.1660999999999 119.26953000000002,652.80273 C 122.85318000000002,690.63888 126.66135000000001,728.45445 130.65039000000002,766.25 L 55.849609000000015,759.0293 C 58.01880300000001,737.03418 60.10698900000001,715.03026 61.908203000000015,693.0019500000001 C 67.02934000000002,630.37197 70.65493400000001,567.5376900000001 72.47851600000001,504.6152300000001 C 83.65212900000002,500.8308300000001 94.92954000000002,497.3714200000001 106.28711000000001,494.1757800000001 L 106.28711000000001,494.17578" id="path9052" /></svg:g></svg:svg>

<svg:svg xmlns:cc="http://creativecommons.org/ns#" xmlns:dc="http://purl.org/dc/elements/1.1/" xmlns:inkscape="http://www.inkscape.org/namespaces/inkscape" xmlns:rdf="http://www.w3.org/1999/02/22-rdf-syntax-ns#" xmlns:sodipodi="http://sodipodi.sourceforge.net/DTD/sodipodi-0.dtd" xmlns:svg="http://www.w3.org/2000/svg" xml:space="preserve" width="1000" height="1000" version="1.1" style="clip-rule:evenodd;fill-rule:evenodd;image-rendering:optimizeQuality;shape-rendering:geometricPrecision;text-rendering:geometricPrecision" viewBox="0 0 1000 1000" id="svg10" sodipodi:docname="H.svg" inkscape:version="1.1.1 (3bf5ae0d25, 2021-09-20)"><svg:metadata id="metadata14"><rdf:RDF><cc:Work rdf:about=""><dc:format>image/svg+xml</dc:format><dc:type rdf:resource="http://purl.org/dc/dcmitype/StillImage" /><dc:title /></cc:Work></rdf:RDF></svg:metadata><sodipodi:namedview pagecolor="#ffffff" bordercolor="#666666" borderopacity="1" objecttolerance="10" gridtolerance="10" guidetolerance="10" inkscape:pageopacity="0" inkscape:pageshadow="2" inkscape:window-width="1920" inkscape:window-height="1009" id="namedview12" showgrid="false" inkscape:zoom="1.6978177" inkscape:cx="155.19923" inkscape:cy="549.23447" inkscape:window-x="0" inkscape:window-y="0" inkscape:window-maximized="1" inkscape:current-layer="svg10" showguides="true" inkscape:guide-bbox="true" inkscape:document-rotation="0" inkscape:pagecheckerboard="0"><sodipodi:guide position="0,1000" orientation="0,1" id="guide16" inkscape:label="" inkscape:locked="true" inkscape:color="rgb(0,0,255)" /><sodipodi:guide position="1763.3122,2036.1693" orientation="1000,0" id="guide18" /><sodipodi:guide position="0,200" orientation="0,1" id="guide20" inkscape:label="base" inkscape:locked="true" inkscape:color="rgb(0,0,255)" /><inkscape:grid type="xygrid" id="grid24" originx="-473.37552" originy="-489.69235" /><sodipodi:guide position="0,0" orientation="0,1" id="guide34" inkscape:label="bottom" inkscape:locked="true" inkscape:color="rgb(0,0,255)" /><sodipodi:guide position="225.05109,1693.3186" orientation="0,1" id="guide44" inkscape:label="" inkscape:locked="false" inkscape:color="rgb(0,0,255)" /><sodipodi:guide position="0,900" orientation="0,1" id="guide46" inkscape:label="" inkscape:locked="true" inkscape:color="rgb(0,0,255)" /><sodipodi:guide position="433.17326,577.74839" orientation="-1,0" id="guide841" inkscape:label="width" inkscape:locked="false" inkscape:color="rgb(0,0,255)" /></sodipodi:namedview>
 <svg:defs id="defs4"><inkscape:path-effect effect="fillet_chamfer" id="path-effect850" is_visible="true" lpeversion="1" satellites_param="F,0,0,1,0,0,0,1 @ F,0,0,1,0,13.114797,0,1 @ F,0,0,1,0,15.793356,0,1 @ F,0,0,1,0,0,0,1 @ F,0,0,1,0,0,0,1 @ F,0,0,1,0,11.89804,0,1 @ F,0,0,1,0,21.049515,0,1 @ F,0,0,1,0,0,0,1 @ F,0,0,1,0,0,0,1 | F,0,0,1,0,10.514111,0,1 @ F,0,0,1,0,0,0,1 @ F,0,0,1,0,16.152239,0,1 @ F,0,0,1,0,10.734205,0,1 @ F,0,0,1,0,0,0,1 @ F,0,0,1,0,13.248503,0,1 | F,0,0,1,0,0,0,1 @ F,0,0,1,0,32.609472,0,1 @ F,0,0,1,0,17.929758,0,1 @ F,0,0,1,0,0,0,1 @ F,0,0,1,0,0,0,1 @ F,0,0,1,0,17.01762,0,1 @ F,0,0,1,0,17.997886,0,1 @ F,0,0,1,0,0,0,1" unit="px" method="auto" mode="F" radius="0" chamfer_steps="1" flexible="false" use_knot_distance="true" apply_no_radius="true" apply_with_radius="true" only_selected="true" hide_knots="false" /><inkscape:path-effect effect="fillet_chamfer" id="path-effect848" is_visible="true" lpeversion="1" satellites_param="F,0,0,1,0,19.317652,0,1 @ F,0,0,1,0,0,0,1 @ F,0,0,1,0,0,0,1 @ F,0,0,1,0,0,0,1 @ F,0,0,1,0,0,0,1 @ F,0,0,1,0,15.498803,0,1 @ F,0,0,1,0,19.429687,0,1 @ F,0,0,1,0,0,0,1 @ F,0,0,1,0,0,0,1 @ F,0,0,1,0,27.20276,0,1 @ F,0,0,1,0,25.720232,0,1 @ F,0,0,1,0,0,0,1 @ F,0,0,1,0,0,0,1 @ F,0,0,1,0,0,0,1 @ F,0,0,1,0,0,0,1 @ F,0,0,1,0,30.293729,0,1 @ F,0,0,1,0,25.19974,0,1 @ F,0,0,1,0,0,0,1 @ F,0,0,1,0,0,0,1 @ F,0,0,1,0,16.098932,0,1" unit="px" method="auto" mode="F" radius="0" chamfer_steps="1" flexible="false" use_knot_distance="true" apply_no_radius="true" apply_with_radius="true" only_selected="true" hide_knots="false" /><inkscape:path-effect effect="spiro" id="path-effect849" is_visible="true" lpeversion="1" /><inkscape:path-effect effect="spiro" id="path-effect851" is_visible="true" lpeversion="1" />
  <svg:style type="text/css" id="style2">
   
    .fil0 {fill:#EF7F1A;fill-rule:nonzero}
   
  </svg:style>
 <inkscape:path-effect effect="spiro" id="path-effect1214" is_visible="true" lpeversion="1" /><inkscape:path-effect effect="spiro" id="path-effect1195" is_visible="true" lpeversion="1" /><inkscape:path-effect effect="spiro" id="path-effect992" is_visible="true" lpeversion="1" /><inkscape:path-effect effect="spiro" id="path-effect1060" is_visible="true" lpeversion="1" /><inkscape:path-effect effect="spiro" id="path-effect1047" is_visible="true" lpeversion="1" /><inkscape:path-effect effect="spiro" id="path-effect1085" is_visible="true" lpeversion="1" /><inkscape:path-effect effect="spiro" id="path-effect1286" is_visible="true" lpeversion="1" /></svg:defs>
 
<svg:g id="path847"><svg:path style="color:#000000;clip-rule:nonzero;fill:#1a5fb4;fill-rule:nonzero;stroke-linecap:round;stroke-linejoin:round;-inkscape-stroke:none;shape-rendering:auto" d="m 294.74805,-29.269531 c -8.952,0.683329 -18.09859,4.234512 -24.94336,10.742187 -9.12637,8.6769012 -13.20705,21.6950005 -12.16602,33.150391 3.41718,37.602307 6.69528,75.217175 9.83399,112.843753 5.37205,64.39973 10.16434,128.57261 12.81054,192.54492 -18.53837,3.19304 -37.15952,5.89947 -55.85351,7.97265 -21.47717,2.38185 -43.04447,3.9264 -64.63867,4.82032 -0.59932,-58.6991 0.99723,-117.20256 5.96093,-175.39063 3.22407,-37.79481 7.8276,-75.474467 13.80078,-112.933591 4.08599,-25.624103 -14.00525,-50.8629702 -39.84375,-54.898438 L 33.443359,-27.015625 C 21.182003,-28.930609 6.4285728,-25.468903 -3.5195313,-15.509766 -13.467635,-5.550628 -16.897999,9.111966 -15.033203,21.337891 -6.1222052,79.759936 0.70292153,138.49982 5.4277344,197.4082 c 3.4695205,43.25756 5.7322746,86.61874 7.0410156,130.03516 -0.07213,-0.008 -0.144665,-0.0131 -0.216797,-0.0215 -21.6967789,-2.52167 -44.051309,17.0358 -44.18164,39.05665 l -0.707032,119.28515 c -0.0699,11.81048 5.332234,26.60409 17.845703,34.77344 8.2814218,5.40648 17.7910701,6.7657 26.40625,5.76953 -1.9522567,53.96269 -5.1019833,107.92271 -9.5078121,161.80469 -2.10104072,25.6951 -4.4570637,51.37105 -7.0664063,77.01953 -2.6348435,25.89914 16.9612034,49.94325 42.9550784,52.45312 l 91.044926,8.79102 c 16.8629,1.62822 34.3177,-4.0922 46.13867,-16.04883 11.82097,-11.95663 17.33513,-29.43677 15.55273,-46.26172 -4.1264,-38.95108 -8.0371,-77.92344 -11.73047,-116.91797 -5.26891,-55.62916 -9.96726,-111.23759 -13.47851,-166.75195 23.36438,-4.35935 46.93145,-7.61711 70.61328,-9.47656 15.16388,-1.19064 30.37149,-1.86082 45.58594,-2.01953 -1.64822,65.26768 -5.93486,130.74514 -11.13282,196.37695 -2.66752,33.68143 -5.56819,67.345 -8.70117,100.98633 -2.57648,27.66577 18.71255,53.09552 46.45899,55.33398 l 91.11132,7.34961 c 11.15828,0.9002 23.76575,-3.2176 32.13672,-12.09179 8.37097,-8.8742 11.73483,-21.63757 10.22461,-32.69727 -5.72881,-41.95355 -10.42999,-84.04874 -14.09765,-126.23242 -5.10772,-58.74643 -8.03447,-117.67322 -9.13282,-176.63672 10.21296,1.57231 21.8591,-0.87439 30.53711,-7.95703 9.07555,-7.40708 14.04688,-19.21525 14.04688,-30.05078 V 325.29297 c 0,-11.32953 -5.30442,-24.67293 -16.15821,-32.48047 -7.43644,-5.34932 -16.3985,-7.3427 -24.7539,-6.98828 2.83174,-50.43878 6.94504,-100.8053 12.68359,-150.9961 3.6945,-32.31294 7.98766,-64.557031 12.87696,-96.710933 3.73235,-24.545374 -13.95288,-48.525563 -38.63672,-52.046875 L 303.54297,-29 c -2.8483,-0.406329 -5.81093,-0.497308 -8.79492,-0.269531 z m 24.79687,63.160156 66.91406,9.544922 c -4.12368,28.136434 -7.89469,56.323171 -11.125,84.576173 -6.62457,57.94011 -11.16158,116.10801 -13.99804,174.35742 -7.16882,1.89696 -14.35657,3.72406 -21.56836,5.45117 C 336.9866,245.71647 332.3904,183.9139 327.26562,122.47852 324.8016,92.940017 322.17991,63.414364 319.54492,33.890625 Z m -271.874998,2.044922 70.835938,11.0625 C 113.199,81.957616 108.97424,117.07999 105.96875,152.3125 100.814,212.74016 99.16271,273.13154 99.769531,333.38867 90.70476,333.18599 81.644724,332.85493 72.589844,332.39062 71.295791,285.7742 68.970188,239.16463 65.236328,192.61133 61.033973,140.21688 55.107515,87.969068 47.669922,35.935547 Z M 359.03125,364.88672 c -0.39924,15.76518 -0.70946,31.52893 -0.83008,47.29883 -5.26034,-0.49854 -10.52905,-0.88246 -15.79883,-1.26758 -0.003,-2.57935 0.0358,-5.15411 0.0234,-7.73438 -0.0547,-11.45114 -0.21267,-22.89164 -0.44922,-34.32031 5.69289,-1.29107 11.38521,-2.58615 17.05469,-3.97656 z m -76.9043,15.71875 c 0.12139,7.62292 0.26441,15.24655 0.30078,22.86328 0.009,1.81203 -0.0213,3.62706 -0.0176,5.43945 -17.00696,0.14759 -34.00996,0.86164 -50.97071,2.19336 -23.1903,1.82086 -46.26011,4.88651 -69.16015,8.9043 -0.40343,-9.07342 -0.81054,-18.14701 -1.125,-27.21289 23.34506,-0.94057 46.66287,-2.59806 69.88867,-5.17383 17.08669,-1.89493 34.12012,-4.23961 51.08398,-7.01367 z M 73.650391,392.49609 c 9.153618,0.43159 18.310815,0.73967 27.472659,0.91993 0.45088,13.2073 1.05489,26.39649 1.6875,39.58593 -9.767582,2.56046 -19.476414,5.32148 -29.130863,8.28125 0.147761,-16.25909 0.08455,-32.52323 -0.0293,-48.78711 z m 268.031249,78.52539 c 5.57031,0.43734 11.13188,0.94626 16.68945,1.52149 0.95,63.61093 4.06502,127.19145 9.57618,190.57812 3.02072,34.74287 6.91476,69.40333 11.30273,104 l -56.81836,-4.58398 c 2.83155,-30.82581 5.52671,-61.66448 7.9707,-92.52344 5.22462,-65.9684 9.58242,-132.31834 11.2793,-198.99219 z m -235.39453,23.1543 c 3.50861,53.07601 7.99695,105.99032 12.98242,158.62695 3.58365,37.83615 7.39182,75.65172 11.38086,113.44727 l -74.800781,-7.2207 c 2.169194,-21.99512 4.25738,-43.99904 6.058594,-66.02735 5.121137,-62.62998 8.746731,-125.46426 10.570313,-188.38672 11.173613,-3.7844 22.451024,-7.24381 33.808594,-10.43945 z" id="path9034" /></svg:g></svg:svg>
